X:1
T:O grimmig Lieb
T:Valentin Haussmann
T:Source : Tricinia---Johann-Jacob Gastoldi und anderer Autorn---Nürnberg---P.Kauffmann---1607. Editor : André Vierendeels (26/03/17).
T:Notes : Original clefs : G2, C1, C4 Editorial accidentals above the staff Text Middle German by Valentin Hauszmann
T:O grimmig Lieb
T:©
T:©
T:©
C:Valentin Haussmann
Z:©
%%score [ 1 2 3 ]
L:1/8
Q:1/4=100
M:4/4
K:F
V:1 treble nm="Soprano 1" snm="S 1"
V:2 treble nm="Soprano 2" snm="S 2"
V:3 treble-8 nm="Tenor" snm="T"
V:1
"^1)" B4 B2 c2 | d4 c4 | B3 B B2 c2 | A4 A4 | z4 z2 f2 | e2 d2 c4- | c2 B2 A4 |1[M:2/4] G4 :|2 %8
w: O grim- mig|Lieb, ver-|brenn doch nicht mein|Hert- ze|welchs|du ent- zündt|_ mit schmer-|ze,|
w: Kein au- gen-|blick kan|ich für dir ge-|ne- sen,|ists|nicht ein e-|* lend we-|sen,|
 G2 B2 |:[M:4/4] c2 c2 d4 | z4 z2 d2 | c2 B2 A4 | A2 Bc d4 | d2 ef g4 | z2 c2 f3 f | f6 g2 | %16
w: ze, durch|dei- ne flamm',|so|un- ge- zam,|von der es ist,|von der es ist|mit gros- ser|hitz durch-|
w: sen, du|thust mir andt,|in|di- sem stand,|dein feur musz ich|mit har- ter müh|mi har- ter|müh er|
 e2 f2 e4 | d2 f4 ed | c2 d2 c3 B | A4 G4 | z2 d4 cB | A2 G2 ^F2 G2- | G2 ^F2 !fermata!G4 :| %23
w: schla- * *|gen, ist nicht wol|ausz- zu- sa- *|* gen,|ist nicht wol|ausz- zu- sa- *|* * gen.|
w: neh- * *|ren, es thut mich|sehr be- schweh- *|* ren|es thut mich|sehr be- schweh- *|* * ren.|
V:2
"^2)""^1)" G4 G2 A2 | B4 A4 | G3 G G2 A2 |"^-natural" ^F4 F2 f2 | e2 d2 c4- | c2 B2 A2 G2 | %6
w: O grim- mig|Lieb, ver-|brenn doch nicht mein|Hert- ze, welchs|du ent- zündt|_ mit schmer- *|
w: Lasz mir nur|frist bis-|wei- len ei- ne|stun- de, ver-|derb mich nicht|_ in grun- *|
 ^F2 G4 F2 |1[M:2/4] G4 :|2 G4 |:[M:4/4] z4 F4 | G2 G2 A2 F2 | A2 G2 ^F4- | F4 ^F2 GA | B4 =B2 cd | %14
w: |ze,|ze,|durch|dei- ne flamm', so|un- ge- zam,|_ von der es|ist, von der es|
w: |de,|de,|und|gib ein masz, der|brunst, auff dasz|_ mein Hertz sich|kan ein we- nig|
 e4 z2 A2 | d3 d d2 e2 | ^c2 d4 c2 | d4 z2 A2- | A2 GF E2 G2- | G2 ^F2 G2 B2- | B2 AG ^F4- | %21
w: ist mit|gros- set hitz durch-|schla- * *|gen, ist|_ nicht wol ausz- zu-|* sa- gen, ist|_ nicht wol ausz-|
w: widr ein|we- nig widr er-|ho- * *|len, sonst|_ wirdts du Asch _|und Bo- len, sonst|_ wirdts du Asch|
 F2 G2 A2 B2 | A4 !fermata!G4 :| %23
w: * zu- sa- *|* gen.|
w: _ und Bo- *|* len.|
V:3
"^3)""^1)" G4 G2 F2 | Bcde f2 c2 | _e3 e e2 c2 | d4 d2 d2 | c2 B2 A4- | A2 B2 cd_ec | d8 |1 %7
w: O grim- mig|Lieb, _ _ _ _ ver-|brenn doch nicht mein|Hert- ze, welchs|du ent- zündt|_ mit schmer- * * *||
[M:2/4] G4 :|2 G2 G2 |:[M:4/4] F2 E2 D2 d2 | c2 B2 A2 B2 | F2 G2 d4- | d4 D2 EF |"^b" G4 G2 AB | %14
w: ze,|ze, durch|dei- ne flamm', durch|dei- ne flamm', so|un- ge- zam,|_ von der es|ist, von der es|
 c4 z2 F2 | B3 B B2 G2 | A8 | D2 d4 cB | A2 B2 c4 | d4 z2 G2- | G2 FE D4- | D2 _E2 D4- | %22
w: ist mit|gros- ser hitz durch-|schla-|gen, ist nicht wol|ausz- zu- sa-|gen, ist|_ nicht wol ausz-|* zu- sa-|
 D4 !fermata!G4 :| %23
w: * gen.|

